src/xmb/monochrome/screenshot.svg

<?xml version="1.0" encoding="UTF-8" standalone="no"?>
<!-- Generator: Adobe Illustrator 16.0.0, SVG Export Plug-In . SVG Version: 6.00 Build 0)  -->

<svg
   xmlns:dc="http://purl.org/dc/elements/1.1/"
   xmlns:cc="http://creativecommons.org/ns#"
   xmlns:rdf="http://www.w3.org/1999/02/22-rdf-syntax-ns#"
   xmlns:svg="http://www.w3.org/2000/svg"
   xmlns="http://www.w3.org/2000/svg"
   xmlns:sodipodi="http://sodipodi.sourceforge.net/DTD/sodipodi-0.dtd"
   xmlns:inkscape="http://www.inkscape.org/namespaces/inkscape"
   version="1.1"
   id="svg2"
   inkscape:export-filename="/home/kivutar/Bureau/lakka-menu/reload.png"
   inkscape:export-xdpi="90"
   inkscape:version="0.91 r13725"
   inkscape:export-ydpi="90"
   sodipodi:docname="screenshot.svg"
   x="0px"
   y="0px"
   width="64"
   height="64"
   viewBox="0 128 64 64"
   enable-background="new 0 128 64 64"
   xml:space="preserve"><metadata
     id="metadata8"><rdf:RDF><cc:Work
         rdf:about=""><dc:format>image/svg+xml</dc:format><dc:type
           rdf:resource="http://purl.org/dc/dcmitype/StillImage" /><dc:title></dc:title></cc:Work></rdf:RDF></metadata><defs
     id="defs6" /><sodipodi:namedview
     pagecolor="#808080"
     bordercolor="#666666"
     borderopacity="1"
     objecttolerance="10"
     gridtolerance="10"
     guidetolerance="10"
     inkscape:pageopacity="0"
     inkscape:pageshadow="2"
     inkscape:window-width="1024"
     inkscape:window-height="697"
     id="namedview4"
     showgrid="true"
     inkscape:zoom="3.6874999"
     inkscape:cx="73.35198"
     inkscape:cy="15.134412"
     inkscape:window-x="0"
     inkscape:window-y="0"
     inkscape:window-maximized="1"
     inkscape:current-layer="svg2"
     inkscape:snap-bbox="true"
     inkscape:bbox-paths="true"
     inkscape:snap-bbox-midpoints="true"
     inkscape:snap-bbox-edge-midpoints="true"
     inkscape:bbox-nodes="true"
     inkscape:snap-smooth-nodes="true"
     inkscape:object-nodes="true"
     inkscape:snap-intersection-paths="true"
     inkscape:object-paths="true"
     inkscape:snap-midpoints="true"><inkscape:grid
       type="xygrid"
       id="grid4133"
       empspacing="4" /></sodipodi:namedview><path
     style="opacity:1;fill:#ffffff"
     d="M 32 18 C 30.011 18 28 20.06626 28 22 L 17.199219 22 C 15.210219 22 14 23.06625 14 25 L 14 42.5 C 14 44.43374 15.610609 46 17.599609 46 L 46.400391 46 C 48.389391 46 50 44.43374 50 42.5 L 50 25 C 50 23.06625 48.989 22 47 22 C 47 20.06626 44.789781 18 42.800781 18 L 32 18 z M 19 24.650391 C 20.281879 24.650391 21.349609 25.71812 21.349609 27 C 21.349609 28.28188 20.281879 29.349609 19 29.349609 C 17.718121 29.349609 16.650391 28.28188 16.650391 27 C 16.650391 25.71812 17.718121 24.650391 19 24.650391 z M 37 25 C 41.947897 25 45.999997 29.0521 46 34 C 45.999997 38.9479 41.947897 43 37 43 C 32.052103 43 28.000003 38.9479 28 34 C 28.000003 29.0521 32.052103 25 37 25 z M 37 28.826172 C 34.120243 28.826172 31.826174 31.12024 31.826172 34 C 31.826174 36.87976 34.120243 39.173828 37 39.173828 C 39.879757 39.173828 42.173826 36.87976 42.173828 34 C 42.173826 31.12024 39.879757 28.826172 37 28.826172 z "
     transform="translate(0,128)"
     id="Screenshot" /></svg>

<svg xmlns="http://www.w3.org/2000/svg" xml:space="preserve" width="64" height="64" viewBox="0 128 64 64"><path d="M32 18c-1.989 0-4 2.066-4 4H17.2c-1.99 0-3.2 1.066-3.2 3v17.5c0 1.934 1.61 3.5 3.6 3.5h28.8c1.99 0 3.6-1.566 3.6-3.5V25c0-1.934-1.011-3-3-3 0-1.934-2.21-4-4.2-4zm-13 6.65A2.37 2.37 0 0 1 21.35 27 2.37 2.37 0 0 1 19 29.35 2.37 2.37 0 0 1 16.65 27 2.37 2.37 0 0 1 19 24.65M37 25c4.948 0 9 4.052 9 9s-4.052 9-9 9-9-4.052-9-9 4.052-9 9-9m0 3.826A5.146 5.146 0 0 0 31.826 34 5.146 5.146 0 0 0 37 39.174 5.146 5.146 0 0 0 42.174 34 5.146 5.146 0 0 0 37 28.826" style="opacity:1;fill:#fff" transform="translate(0 128)"/></svg>
